src/assets/svg/icons/fa/nuevos/classic/duotone/face-grin-tongue-squint classic duotone.svg

<svg xmlns="http://www.w3.org/2000/svg" viewBox="0 0 512 512"><!--! Font Awesome Pro 6.4.0 by @fontawesome - https://fontawesome.com License - https://fontawesome.com/license (Commercial License) Copyright 2023 Fonticons, Inc. --><defs><style>.fa-secondary{opacity:.4}</style></defs><path class="fa-primary" d="M133.5 130.7c-7.9-4.2-17.5 1.5-17.5 10.5c0 2.8 1 5.5 2.8 7.6l36 43.2-36 43.2c-1.8 2.1-2.8 4.8-2.8 7.6c0 9 9.6 14.7 17.5 10.5l89.9-47.9c10.7-5.7 10.7-21.1 0-26.8l-89.9-47.9zm245 0l-89.9 47.9c-10.7 5.7-10.7 21.1 0 26.8l89.9 47.9c7.9 4.2 17.5-1.5 17.5-10.5c0-2.8-1-5.5-2.8-7.6l-36-43.2 36-43.2c1.8-2.1 2.8-4.8 2.8-7.6c0-9-9.6-14.7-17.5-10.5zM320 448V402.6c0-14.7-11.9-26.6-26.6-26.6h-2c-11.3 0-21.1 7.9-23.6 18.9c-2.8 12.6-20.8 12.6-23.6 0c-2.5-11.1-12.3-18.9-23.6-18.9h-2c-14.7 0-26.6 11.9-26.6 26.6V448c0 35.3 28.7 64 64 64s64-28.7 64-64z"/><path class="fa-secondary" d="M174.5 498.8C73.1 464.7 0 368.9 0 256C0 114.6 114.6 0 256 0S512 114.6 512 256c0 112.9-73.1 208.7-174.5 242.8C346.7 484 352 466.6 352 448V401.1c24.3-17.5 43.6-41.6 55.4-69.6c5-11.8-7-22.5-19.3-18.7c-39.7 12.2-84.5 19-131.8 19s-92.1-6.8-131.8-19c-12.3-3.8-24.3 6.9-19.3 18.7c11.7 27.8 30.8 51.7 54.8 69.2V448c0 18.6 5.3 36 14.5 50.8zm-41-368.1c-7.9-4.2-17.5 1.5-17.5 10.5c0 2.8 1 5.5 2.8 7.6l36 43.2-36 43.2c-1.8 2.1-2.8 4.8-2.8 7.6c0 9 9.6 14.7 17.5 10.5l89.9-47.9c10.7-5.7 10.7-21.1 0-26.8l-89.9-47.9zM396 141.1c0-9-9.6-14.7-17.5-10.5l-89.9 47.9c-10.7 5.7-10.7 21.1 0 26.8l89.9 47.9c7.9 4.2 17.5-1.5 17.5-10.5c0-2.8-1-5.5-2.8-7.6l-36-43.2 36-43.2c1.8-2.1 2.8-4.8 2.8-7.6z"/></svg>

<svg xmlns="http://www.w3.org/2000/svg" viewBox="0 0 512 512"><defs><style>.fa-secondary{opacity:.4}</style></defs><path class="fa-primary" d="M223.4 178.6C234.1 184.3 234.1 199.7 223.4 205.4L133.5 253.3C125.6 257.6 116 251.8 116 242.9C116 240.1 116.1 237.4 118.8 235.2L154.8 192L118.8 148.8C116.1 146.6 116 143.9 116 141.1C116 132.2 125.6 126.4 133.5 130.7L223.4 178.6zM378.5 130.7C386.4 126.4 396 132.2 396 141.1C396 143.9 395 146.6 393.2 148.8L357.2 191.1L393.2 235.2C395 237.4 396 240.1 396 242.9C396 251.8 386.4 257.6 378.5 253.3L288.6 205.4C277.9 199.7 277.9 184.3 288.6 178.6L378.5 130.7zM256 512C220.7 512 192 483.3 192 448V402.6C192 387.9 203.9 376 218.6 376H220.6C231.9 376 241.7 383.9 244.2 394.9C247 407.5 264.1 407.5 267.8 394.9C270.3 383.9 280.1 376 291.4 376H293.4C308.1 376 320 387.9 320 402.6V448C320 483.3 291.3 512 256 512V512z"/><path class="fa-secondary" d="M174.5 498.8C73.07 464.7 0 368.9 0 256C0 114.6 114.6 0 256 0C397.4 0 512 114.6 512 256C512 368.9 438.9 464.7 337.5 498.8C346.7 484 352 466.6 352 448V401.1C376.3 383.5 395.6 359.5 407.4 331.5C412.4 319.7 400.4 309 388.1 312.8C348.4 324.9 303.7 331.8 256.3 331.8C208.9 331.8 164.1 324.9 124.5 312.8C112.2 309 100.2 319.7 105.2 331.5C116.9 359.3 135.1 383.1 159.1 400.7V448C159.1 466.6 165.3 484 174.5 498.8L174.5 498.8zM133.5 130.7C125.6 126.4 116 132.2 116 141.1C116 143.9 116.1 146.6 118.8 148.8L154.8 192L118.8 235.2C116.1 237.4 116 240.1 116 242.9C116 251.8 125.6 257.6 133.5 253.3L223.4 205.4C234.1 199.7 234.1 184.3 223.4 178.6L133.5 130.7zM396 141.1C396 132.2 386.4 126.4 378.5 130.7L288.6 178.6C277.9 184.3 277.9 199.7 288.6 205.4L378.5 253.3C386.4 257.6 396 251.8 396 242.9C396 240.1 395 237.4 393.2 235.2L357.2 192L393.2 148.8C395 146.6 396 143.9 396 141.1V141.1z"/></svg>
